packages/ffe-icons/icons/open/300/sm/token.svg

<svg xmlns="http://www.w3.org/2000/svg" height="20" viewBox="0 -960 960 960" width="20"><path d="M480-141.385q-7.231 0-15.577-1.616-8.346-1.615-15.577-6.23L199.154-287.078q-15.076-7.846-24.115-22.922-9.038-15.077-9.038-33.025v-274.079q0-17.948 8.938-32.734 8.939-14.787 24.115-23.568l249.692-138.846q7.331-4.132 15.677-5.747 8.346-1.616 16.077-1.616 7.731 0 16.077 1.616 8.346 1.615 15.673 5.793l249.596 140.284q15.076 7.846 23.615 22.855 8.538 15.009 8.538 33.221v272.905q0 17.864-8.538 32.941-8.539 15.076-23.615 22.922L512.154-149.231q-7.231 4.615-15.411 6.23-8.179 1.616-16.743 1.616ZM377.923-566.691q20.212-23.008 46.606-35.158 26.394-12.15 55.762-12.15 29.753 0 55.743 12.15 25.989 12.15 46.043 35.158L713.386-639 486.154-765.078q-3.077-1.538-6.154-1.538t-6.154 1.538L246.614-639l131.309 72.309Zm76.078 361.615v-142.617q-47-9.692-77.5-46.354-30.5-36.663-30.5-85.966 0-11.141 1.577-20.41 1.577-9.27 5.346-20.193l-134.925-75.308v252.484q0 3.462 1.539 6.154 1.538 2.693 4.616 4.616l229.847 127.594Zm26.495-192.923q33.726 0 57.615-22.885 23.89-22.885 23.89-59.116 0-36.231-23.89-59.116-23.889-22.885-57.615-22.885-33.727 0-58.112 22.885-24.385 22.885-24.385 59.116 0 36.231 24.385 59.116 24.385 22.885 58.112 22.885Zm25.503 192.923L735.846-332.67q3.078-1.923 4.616-4.616 1.539-2.692 1.539-6.154v-252.484l-134.925 75.308q3.769 11.923 5.346 20.926 1.577 9.003 1.577 19.69 0 49.298-30 85.957-30 36.658-78 46.35v142.617Z"/></svg>

<svg xmlns="http://www.w3.org/2000/svg" height="20" viewBox="0 -960 960 960" width="20"><path d="M480-141.39q-7.23 0-15.58-1.61-8.34-1.62-15.57-6.23l-249.7-137.85q-15.07-7.84-24.11-22.92-9.04-15.08-9.04-33.02V-617.1q0-17.95 8.94-32.74 8.94-14.78 24.11-23.57l249.7-138.84q7.33-4.13 15.67-5.75 8.35-1.61 16.08-1.61 7.73 0 16.08 1.61 8.34 1.62 15.67 5.79l249.6 140.29q15.07 7.84 23.61 22.85 8.54 15.01 8.54 33.22v272.91q0 17.86-8.54 32.94-8.54 15.08-23.61 22.92l-249.7 137.85q-7.23 4.61-15.41 6.23-8.18 1.61-16.74 1.61Zm-102.08-425.3q20.22-23.01 46.61-35.16Q450.92-614 480.29-614q29.75 0 55.74 12.15 25.99 12.15 46.05 35.16L713.39-639 486.15-765.08q-3.07-1.54-6.15-1.54-3.08 0-6.15 1.54L246.61-639l131.31 72.31ZM454-205.08v-142.61q-47-9.7-77.5-46.36T346-480.01q0-11.14 1.58-20.41 1.57-9.27 5.34-20.2L218-595.92v252.48q0 3.46 1.54 6.15 1.54 2.7 4.61 4.62L454-205.08ZM480.5-398q33.72 0 57.61-22.88Q562-443.77 562-480t-23.89-59.12Q514.22-562 480.5-562q-33.73 0-58.12 22.88Q398-516.23 398-480t24.38 59.12Q446.77-398 480.5-398ZM506-205.08l229.85-127.59q3.07-1.92 4.61-4.62 1.54-2.69 1.54-6.15v-252.48l-134.92 75.3q3.77 11.93 5.34 20.93 1.58 9 1.58 19.69 0 49.3-30 85.96-30 36.65-78 46.35v142.61Z"/></svg>
